src/assets/icons/fa/stumbleupon-circle.svg

<?xml version="1.0" encoding="utf-8"?>
<svg width="1792" height="1792" viewBox="0 0 1792 1792" xmlns="http://www.w3.org/2000/svg"><path d="M994 839l90-27v-62q0-79-58-135t-138-56-138 55.5-58 134.5v283q0 20-14 33.5t-33 13.5-32.5-13.5-13.5-33.5v-120h-151v122q0 82 57.5 139t139.5 57q81 0 138.5-56.5t57.5-136.5v-280q0-19 13.5-33t33.5-14q19 0 32.5 14t13.5 33v54zm333 195v-122h-150v126q0 20-13.5 33.5t-33.5 13.5q-19 0-32.5-14t-13.5-33v-123l-90 26-60-28v123q0 80 58 137t139 57 138.5-57 57.5-139zm337-138q0 209-103 385.5t-279.5 279.5-385.5 103-385.5-103-279.5-279.5-103-385.5 103-385.5 279.5-279.5 385.5-103 385.5 103 279.5 279.5 103 385.5z"/></svg>

<svg width="1792" height="1792" xmlns="http://www.w3.org/2000/svg"><path d="M994 839l90-27v-62q0-79-58-135t-138-56-138 55.5T692 749v283q0 20-14 33.5t-33 13.5-32.5-13.5T599 1032V912H448v122q0 82 57.5 139t139.5 57q81 0 138.5-56.5T841 1037V757q0-19 13.5-33t33.5-14q19 0 32.5 14t13.5 33v54zm333 195V912h-150v126q0 20-13.5 33.5T1130 1085q-19 0-32.5-14t-13.5-33V915l-90 26-60-28v123q0 80 58 137t139 57 138.5-57 57.5-139zm337-138q0 209-103 385.5T1281.5 1561 896 1664t-385.5-103T231 1281.5 128 896t103-385.5T510.5 231 896 128t385.5 103T1561 510.5 1664 896z"/></svg>
